X: 435
T: A Tune For A Lost Harmonica
R: reel
M: 4/4
K: Dmajor
|:D3F AFDF|GBAF GFEF|DFBF AFDF|GEFD EDCE|
D3F AFDF|GBAF GFEF|DFBF AFDF|EFGE FD D2:|
|:fAdf afdf|ec 3ccc Aceg|f2 df a3e|cdeg fede|
fAdf afdf|ec 3ccc Aceg|fadf efdB|Aceg fd d2:|

